X:1
T:The Marquis of Huntly's Farewell
T:The Marquis of Huntly's Farewell
T:William Marshall
C:William Marshall
L:1/8
Q:1/8=128
M:4/4
K:A
V:1 treble 
V:1
|: A,2 A,>C E<E E3/2F/4G/4 | A>B c>B A2 A<c | A,2 A,>C E<E E>c | B>c d/c/B/A/ F2 F<A | %4
 A,2 A,>C E<E E3/2F/4G/4 | A>B c>B A2 A>c | d>c d>f e<c c<a | B/A/B/c/ d/c/B/A/ F2 Ff | %8
 f/e/d/c/ a>c b>c a2 | f/e/d/c/ a>c fe dc | B<b b>f b/a/g/f/ b2 | f<b b>f a>g f>e | %12
 f/e/d/c/ a>c b>c a2 | f/e/d/c/ a>c f>e d>c | d/e/f/g/ a>g fe dc | B>c d/c/B/A/ F2- F2 :| %16

